!!!COM: Mozart, Wolfgang Amadeus
!!!OTL: String Quartet No. 10 in C Major
!!!OMD: Un poco adagio
!!!OMV: 3
!!!SCT1: K<sup>1</sup> 170
!!!SCA: Chronologisch-thematisches Verzeichnis sämtlicher Tonwerke Wolfgang Amade Mozarts (L. von Köchel; 1862, 2/1905, 3/1937, 1947)
!!!SCT2: K<sup>6</sup> 170
!!!YOR: Breitkopf & Härtel Edition
!!!ENC: Frances Bennion
!!!CDT: 1756/1/27/-1791/12/5/
!!!OCY: Österreich
!!!YEC: Copyright (c) 1994, 2000 Center for Computer Assisted Research in the Humanities
!!!YEM: Rights to all derivative editions reserved.
!!!YEM: Refer to licensing agreement for further details.
!!!YEN: United States of America
**kern	**kern	**kern	**kern
*k[f#]	*k[f#]	*k[f#]	*k[f#]
*G:	*G:	*G:	*G:
*clefC	*clefF	*clefG	*clefG
*M4/4	*M4/4	*M4/4	*M4/4
4r	4r	4r	2.g
8G	8B	8d	.
8r	8r	8r	.
8G	8B	8d	.
8r	8r	8r	.
8G	8B	8d	8dd
8r	8r	8r	8b
=2	=2	=2	=2
4r	4r	4r	4a
8C	8G	8e	2a
8r	8r	8r	.
8C	8G	8e	.
8r	8r	8r	.
8C#	8G	8e	4a
8r	8r	8r	.
=3	=3	=3	=3
4r	4r	4r	4.a
8D	8F#	8d	.
8r	8r	8r	8b
8D	8f#	8a	12cc
.	.	.	12b
8r	8r	8r	.
.	.	.	12a
8D	8a	8cc	12cc
.	.	.	12b
8r	8r	8r	.
.	.	.	12a
=4	=4	=4	=4
4r	4r	4r	2cc
8D	8f#	8a	.
8r	8r	8r	.
8G	8g	8g	4b
8r	8r	8r	.
8GG	8B	8d	4r
8r	8r	8r	.
=5	=5	=5	=5
4r	4r	4r	3..dd
8GG	8B	8g	.
8r	8r	8r	.
8BB	8d	8g	.
.	.	.	12b
8r	8r	8r	.
.	.	.	12g
8C	8c	8g	12ee
.	.	.	12gg
8r	8r	8r	.
.	.	.	12ee
=6	=6	=6	=6
4r	4r	4r	3..dd
8GG	8B	8g	.
8r	8r	8r	.
8BB	8d	8g	.
.	.	.	12b
8r	8r	8r	.
.	.	.	12g
8C	8c	8g	12ee
.	.	.	12gg
8r	8r	8r	.
.	.	.	12ee
=7	=7	=7	=7
8G	8B	8g	4dd
8r	8r	8r	.
4BB	4d	2g	8cc
.	.	.	8b
4C	4e	.	8b
.	.	.	8a
4C	8A	4e	8cc
.	8c	.	8ee
=8	=8	=8	=8
4r	2B	[2d	2g
8D	.	.	.
8r	.	.	.
8D	4A	4d]	4f#
8r	.	.	.
8C	4r	4r	4r
8r	.	.	.
=9	=9	=9	=9
4r	4r	4r	3..g
8BB	8B	8d	.
8r	8r	8r	.
8GG	8B	8d	.
.	.	.	12b
8r	8r	8r	.
.	.	.	12dd
8BB	8d	8g	12gg
.	.	.	12aa
8r	8r	8r	.
.	.	.	12bb
=10	=10	=10	=10
4r	4r	4r	2dd
8AA	8e	8g	.
8r	8r	8r	.
8A	8e	8g	4cc#
8r	8r	8r	.
8A	8d	8f#	4dd
8r	8r	8r	.
=11	=11	=11	=11
4r	4r	4r	8dd#
.	.	.	8ee
8A	8c#	8g	[6..ee
8r	8r	8r	.
8A	8c#	8g	.
.	.	.	48ee]
.	.	.	16ff#
8r	8r	8r	16ee
.	.	.	16ff#
8A	8c#	8e	8gg
8r	8r	8r	8g
=12	=12	=12	=12
4r	4r	4r	4.g
8AA	8c#	8e	.
8r	8r	8r	16f#
.	.	.	16g
8D	8d	8d	4f#
8r	8r	8r	.
8D	8A	8d	4r
8r	8r	8r	.
=13	=13	=13	=13
4r	4r	4r	8dd
.	.	.	8aa
8F#	8a	8dd	2aa
8r	8r	8r	.
8F#	8a	8dd	.
8r	8r	8r	.
8F#	8a	8dd	8gg
8r	8r	8r	8ff#
=14	=14	=14	=14
4r	4r	4r	8ff#
.	.	.	8ee
8G	8b	8dd	2ee
8r	8r	8r	.
8G	8b	8dd	.
8r	8r	8r	.
8G	8b	8dd	4ee
8r	8r	8r	.
=15	=15	=15	=15
4r	4r	4r	8ee
.	.	.	8bb
8A	8e	8cc#	2bb
8r	8r	8r	.
8A	8e	8cc#	.
8r	8r	8r	.
8C#	8a	8ee	8aa
8r	8r	8r	8gg
=16	=16	=16	=16
4r	4r	4r	4.ff#
8D	8a	8dd	.
8r	8r	8r	16ee
.	.	.	16ff#
8G	8b	8dd	8gg
8r	8r	8r	8ee
8G	8g	8b	8gg
8r	8r	8r	8ee
=17	=17	=17	=17
4r	4r	4r	2dd
8A	8f#	8a	.
8r	8r	8r	.
8A	8e	8a	2cc
8r	8r	8r	.
8A	8d#	8f#	.
8r	8r	8r	.
=18	=18	=18	=18
8G	8e	8g	[3..b
8r	8r	8r	.
8GG	8B	8e	.
8r	8r	8r	.
8GG	8B	8e	.
.	.	.	24b]
4.r	4.r	4.r	16cc#
.	.	.	16dd
.	.	.	16ee
.	.	.	16ff#
.	.	.	16gg
.	.	.	16aa
=19	=19	=19	=19
1r	1r	1r	16bb
.	.	.	16ccc#
.	.	.	16ddd
.	.	.	16bb
.	.	.	16gg
.	.	.	16aa
.	.	.	16bb
.	.	.	16gg
.	.	.	16ee
.	.	.	16ff#
.	.	.	16gg
.	.	.	16ee
.	.	.	16b
.	.	.	16cc#
.	.	.	16dd
.	.	.	16b
=20	=20	=20	=20
4A	4g	4cc#	4aa
4B	4f#	2dd	16gg
.	.	.	16ff#
.	.	.	16ee
.	.	.	16dd
4G	4b	.	2ee
4A	8a	4cc#	.
.	8g	.	.
=21	=21	=21	=21
4D	4f#	16dd	16dd
.	.	16f#	16ff#
.	.	16c#	16cc#
.	.	16d	16dd
4GG	4D	16A#	16a#
.	.	16B	16b
.	.	16d#	16dd#
.	.	16e	16ee
4r	4r	16a	16aa
.	.	16g	16gg
.	.	16f#	16ff#
.	.	16e	16ee
4AA	8E	16d	16dd
.	.	16c#	16cc#
.	8G	16B	16b
.	.	16A	16a
=22	=22	=22	=22
4D	4F#	16A	16a
.	.	16f#	16ff#
.	.	16c#	16cc#
.	.	16d	16dd
4GG	4D	16A#	16a#
.	.	16B	16b
.	.	16d#	16dd#
.	.	16e	16ee
4r	4r	16a	16aa
.	.	16g	16gg
.	.	16f#	16ff#
.	.	16e	16ee
4AA	8E	16d	16dd
.	.	16c#	16cc#
.	8G	16B	16b
.	.	16A	16a
=23	=23	=23	=23
4D	[2F#	[2A	2a
4DD	.	.	.
8DD	8F#]	8A]	8dd
4.r	4.r	4.r	4.r
=24	=24	=24	=24
4r	2.d	4r	4r
8D	.	8A	8f#
8r	.	8r	8r
8D	.	8A	8f#
8r	.	8r	8r
8D	8.a	8A	8f#
8r	.	8r	8r
.	16b	.	.
=25	=25	=25	=25
4r	8a	4r	4r
.	8g	.	.
8E	2g	8A	8c#
8r	.	8r	8r
8E	.	8A	8c#
8r	.	8r	8r
8E	8g	8A	8c#
8r	16f#	8r	8r
.	16e	.	.
=26	=26	=26	=26
4r	8d	4r	4r
.	8c#	.	.
8AA	2c#	8G	8e
8r	.	8r	8r
8AA	.	8G	8e
8r	.	8r	8r
8AA	4g	8c#	8e
8r	.	8r	8r
=27	=27	=27	=27
4r	8f#	4r	4r
.	16e	.	.
.	16d	.	.
8D	2d	8d	8f#
8r	.	8r	8r
8D	.	8A	8f#
8r	.	4.r	8r
8BB	4d#	.	8f# 8A
8r	.	.	8r
=28	=28	=28	=28
4r	8e	2.ee	8e 8G
.	8r	.	8r
8E	8g	.	8b
8r	8r	.	8r
8E	8g	.	8b
8r	8r	.	8r
8E	8g	8.bb	8b
8r	8r	.	8r
.	.	16ccc	.
=29	=29	=29	=29
4r	4r	8bb	4r
.	.	8aa	.
8F#	8d#	2aa	8b
8r	8r	.	8r
8F#	8d#	.	8b
8r	8r	.	8r
8F#	8d#	8aa	8b
8r	8r	16gg	8r
.	.	16ff#	.
=30	=30	=30	=30
4r	4r	8ee	4r
.	.	8dd#	.
8BB	8f#	2dd#	8b
8r	8r	.	8r
8BB	8f#	.	8b
8r	8r	.	8r
8BB	8d#	4aa	8f#
8r	8r	.	8r
=31	=31	=31	=31
4r	4r	8gg	4r
.	.	16ff#	.
.	.	16ee	.
8E	8B	4.ee	8g
8r	8r	.	8r
8F#	8A	.	8a
8r	8r	16ff#	4.r
.	.	16ee	.
8F#	8a 8d	8dd	.
8r	8r	8cc	.
=32	=32	=32	=32
4r	8g	8b	2.gg
.	8r	8r	.
8G	8d	8b	.
8r	8r	8r	.
8G	8d	8b	.
8r	8r	8r	.
8G	8d	8b	8.ddd
8r	8r	8r	.
.	.	.	16eee
=33	=33	=33	=33
4r	4r	4r	8ddd
.	.	.	8ccc
8A	8d	8f#	2ccc
8r	8r	8r	.
8A	8d	8f#	.
8r	8r	8r	.
8A	8d	8f#	8ccc
8r	8r	8r	16bb
.	.	.	16aa
=34	=34	=34	=34
4r	4r	4r	8gg
.	.	.	8ff#
8D	8d	8a	2ff#
8r	8r	8r	.
8D	8d	8a	.
8r	8r	8r	.
8D	8f#	8a	4ccc
8r	8r	8r	.
=35	=35	=35	=35
4r	4r	4r	8bb
.	.	.	16aa
.	.	.	16gg
8G	8g	8b	4gg
8r	8r	8r	.
8B	8g	8dd	2r
8r	8r	8r	.
8G	8g	8b	.
8r	8r	8r	.
=36	=36	=36	=36
4r	4r	[2dd	[3..ff
8BB	8g	.	.
8r	8r	.	.
8BB	8g	8dd]	.
.	.	.	24ff]
8r	8r	16cc	16ee
.	.	16dd	16ff
8BB	8g	8ee	8gg
8r	8r	8dd	8ff
=37	=37	=37	=37
4r	4r	8dd	8ff
.	.	8cc	8ee
8C	8g	4cc	4ee
8r	8r	.	.
8GG#	8e	8b	8dd
8r	8r	16a	16cc
.	.	16b	16dd
8GG#	8e	8cc	8ee
8r	8r	[8b	[8dd
=38	=38	=38	=38
4AA	4e	8b]	8dd]
.	.	4a	4cc
4BB	4d	.	.
.	.	4g#	4b
4C	4e	.	.
.	.	4a	4a
4C#	4A	.	.
.	.	8e	8g
=39	=39	=39	=39
4D	4A	4d	8f#
.	.	.	16e
.	.	.	16d
8r	8r	4d	4d
8e	8g	.	.
8d	8f#	2r	2r
8c	8e	.	.
8B	8d	.	.
8A	8c	.	.
=40	=40	=40	=40
8G	8B	4r	2.g
8r	8r	.	.
8G	8B	8d	.
8r	8r	8r	.
8G	8B	8d	.
8r	8r	8r	.
8G	8B	8d	8dd
8r	8r	8r	8b
=41	=41	=41	=41
4r	4r	4r	4a
8C	8G	8e	2a
8r	8r	8r	.
8C	8G	8e	.
8r	8r	8r	.
8C#	8G	8e	4a
8r	8r	8r	.
=42	=42	=42	=42
4r	4r	4r	4.a
8D	8F#	8d	.
8r	8r	8r	8b
8D	8f#	8a	12cc
.	.	.	12b
8r	8r	8r	.
.	.	.	12a
8D	8a	8cc	12ee
.	.	.	12dd
8r	8r	8r	.
.	.	.	12cc
=43	=43	=43	=43
4r	4r	4r	2cc
8F#	8d	8a	.
8r	8r	8r	.
8G	8d	8g	4b
8r	8r	8r	.
8GG	8B	8d	4r
8r	8r	8r	.
=44	=44	=44	=44
4r	4r	4r	3..dd
8GG	8B	8g	.
8r	8r	8r	.
8BB	8d	8g	.
.	.	.	12b
8r	8r	8r	.
.	.	.	12g
8C	8c	8g	12ee
.	.	.	12gg
8r	8r	8r	.
.	.	.	12ee
=45	=45	=45	=45
4r	4r	4r	3..dd
8GG	8B	8g	.
8r	8r	8r	.
8BB	8d	8g	.
.	.	.	12b
8r	8r	8r	.
.	.	.	12g
8C	8c	8g	12ee
.	.	.	12gg
8r	8r	8r	.
.	.	.	12ee
=46	=46	=46	=46
4r	4r	4r	4dd
8GG	8d	8g	8cc
8r	8r	8r	8b
8C	8e	8g	8b
8r	8r	8r	8a
8C	8c	8e	8cc
8r	8r	8r	8ee
=47	=47	=47	=47
4r	2B	4r	2g
8D	.	8d	.
8r	.	8r	.
8D	4A	8d	4f#
8r	.	8r	.
8C	4r	8d	4r
8r	.	8r	.
=48	=48	=48	=48
4r	4r	4r	8g
.	.	.	8gg
8BB	8B	8d	2gg
8r	8r	8r	.
8BB	8B	8d	.
8r	8r	8r	.
8BB	8G	8d	4ff
8r	8r	8r	.
=49	=49	=49	=49
4r	4r	4r	8ff
.	.	.	8ee
8C	8G	8c	2ee
8r	8r	8r	.
8C	8c	8g	.
8r	8r	8r	.
8C	8c	8g	8gg
8r	8r	8r	8ee
=50	=50	=50	=50
4r	4r	4.B	4.dd
8G	8G	.	.
8r	8r	16A	16cc
.	.	16B	16dd
8C	8G	8c	8ee
8r	8r	8d	8b
8C	8G	8e	8cc
8r	8r	8c	8a
=51	=51	=51	=51
4r	4r	8B	2g
.	.	8r	.
8D	8d	8B	.
8r	8r	8r	.
8D	8d	8A	2f
8r	8r	8r	.
8D	8B	8G#	.
8r	8r	8r	.
=52	=52	=52	=52
8C	8c	8A	[3..e
8r	8r	8r	.
8C	8A	8c	.
8r	8r	8r	.
8C	8A	8c	.
.	.	.	24e]
4.r	4.r	4.r	16f#
.	.	.	16g
.	.	.	16a
.	.	.	16b
.	.	.	16cc
.	.	.	16dd
=53	=53	=53	=53
1r	1r	1r	8ee
.	.	.	16ff#
.	.	.	16gg
.	.	.	16aa
.	.	.	16bb
.	.	.	16ccc
.	.	.	16ddd
.	.	.	16eee
.	.	.	16ddd#
.	.	.	16eee
.	.	.	16bb
.	.	.	16ccc
.	.	.	16bb
.	.	.	16ccc
.	.	.	16aa
=54	=54	=54	=54
4D	4c	4f#	4ddd
4E	4B	2g	16ccc
.	.	.	16bb
.	.	.	16aa
.	.	.	16gg
4C	4e	.	2aa
4D	8d	4f#	.
.	8c	.	.
=55	=55	=55	=55
4GG	4B	16g	16gg
.	.	16b	16bb
.	.	16f#	16ff#
.	.	16g	16gg
4C	4G	16d#	16dd#
.	.	16e	16ee
.	.	16g#	16gg#
.	.	16a	16aa
4r	4r	16dd	16ddd
.	.	16cc	16ccc
.	.	16b	16bb
.	.	16a	16aa
4D	8A	16g	16gg
.	.	16f#	16ff#
.	8c	16e	16ee
.	.	16d	16dd
=56	=56	=56	=56
4GG	4B	16d	16dd
.	.	16b	16bb
.	.	16f#	16ff#
.	.	16g	16gg
4C	4G	16d#	16dd#
.	.	16e	16ee
.	.	16g#	16gg#
.	.	16a	16aa
4r	4r	16dd	16ddd
.	.	16cc	16ccc
.	.	16b	16bb
.	.	16a	16aa
4D	8A	16g	16gg
.	.	16f#	16ff#
.	8c	16e	16ee
.	.	16d	16dd
=57	=57	=57	=57
[2G	[2B	[2d	2dd
8G]	8B]	8d]	8gg
4.r	4.r	4.r	4.r
=58	=58	=58	=58
[2GG	2G	[2B	2d
8GG]	8D	8B]	8g
4.r	4.r	4.r	4.r
==	==	==	==
*-	*-	*-	*-
!!!RWG1: This file contains only pitch and duration data.
!!!RWG2: Transposing instruments are not transposed.
!!!RWG3: Spines may have incompatible meters.
!!!RWG4: Durations of rests and tied notes may be interpreted.
!!!RWG: Key is interpreted using the Humdrum key tool.
!!!AFT: stage1
!!!END: 1997/04/15
!!!KEY: 280435730
!!!EMD: Converted from MuseData to Humdrum Dec 16, 2000, by Andreas Kornstaedt using muse2kern.
!!!EMD: Manual editing by Craig Sapp, Nov 2001
